!!!SOCIAL_FUNCTION:	songs for little children
!!!PDT:	1939
!!!OTL: No_125_A_Basket_Full_of_Snipe.krn
!!!LANG: Non-Tone
!!!LING_GROUP: Wakashan
!!!REG: Pacific Northwest
**kern
*staff1
=1-
*clefF4
*k[f#c#g#d#a#]
*M2/4
8d#\L
8d#\J
4d#\
=2
8d#\L
8c#\J
8B\
8r
=3||
*M3/4
8d#\L
16d#\L
16d#\JJ
8d#\L
8d#\J
8B\L
16G#\Jk
16r
=4||
*M2/4
8c#\L
8B\J
8G#\
8r
=5
8B\L
8D#\J
8D#\
8r
=6
8B\L
16B\L
16B\JJ
8B\L
8G#\J
=7
16D#\
16r
16B\LL
16B\JJ
8G#\
8r
=8
8B\L
16G#\L
16G#\JJ
8G#\L
8G#\J
=9
8G#\L
16G#\L
16G#\JJ
8G#\L
8G#\J
=10
4B\
4r
==
*-
